dist/svgs/unicons/line/ticket.svg

<svg xmlns="http://www.w3.org/2000/svg" viewBox="0 0 24 24"><path d="M9 10a1 1 0 00-1 1v2a1 1 0 002 0v-2a1 1 0 00-1-1zm12 1a1 1 0 001-1V6a1 1 0 00-1-1H3a1 1 0 00-1 1v4a1 1 0 001 1 1 1 0 010 2 1 1 0 00-1 1v4a1 1 0 001 1h18a1 1 0 001-1v-4a1 1 0 00-1-1 1 1 0 010-2zm-1-1.82a3 3 0 000 5.64V17H10a1 1 0 00-2 0H4v-2.18a3 3 0 000-5.64V7h4a1 1 0 002 0h10z"/></svg>

<svg xmlns="http://www.w3.org/2000/svg" viewBox="0 0 24 24"><path d="M9,10a1,1,0,0,0-1,1v2a1,1,0,0,0,2,0V11A1,1,0,0,0,9,10Zm12,1a1,1,0,0,0,1-1V6a1,1,0,0,0-1-1H3A1,1,0,0,0,2,6v4a1,1,0,0,0,1,1,1,1,0,0,1,0,2,1,1,0,0,0-1,1v4a1,1,0,0,0,1,1H21a1,1,0,0,0,1-1V14a1,1,0,0,0-1-1,1,1,0,0,1,0-2ZM20,9.18a3,3,0,0,0,0,5.64V17H10a1,1,0,0,0-2,0H4V14.82A3,3,0,0,0,4,9.18V7H8a1,1,0,0,0,2,0H20Z"/></svg>
